.local/share/icons/Gruvbox-Plus-Dark/mimetypes/scalable/application-x-remote-connection.svg

<svg width="256" height="256" viewBox="0 0 256 256" fill="none" xmlns="http://www.w3.org/2000/svg">
<g opacity="0.4" filter="url(#filter0_f)">
<path d="M55.0839 15.5636H155.608L216.009 75.7129L216.011 224.609C216.011 233.52 208.749 240.737 199.838 240.737H55.0838C46.1734 240.737 39 233.564 39 224.654V31.6474C39 22.737 46.1734 15.5636 55.0838 15.5636H55.0839Z" fill="#282828"/>
</g>
<path d="M55.0839 15H155.608L216.009 75.1493L216.011 224.045C216.011 232.956 208.749 240.174 199.838 240.174H55.0838C46.1734 240.174 39 233 39 224.09V31.0838C39 22.1734 46.1734 15 55.0838 15H55.0839Z" fill="#ebdbb2"/>
<path fill-rule="evenodd" clip-rule="evenodd" d="M155.609 22.9787H55.0839C50.58 22.9787 46.9787 26.5799 46.9787 31.0838V224.09C46.9787 228.594 50.5799 232.195 55.0838 232.195H199.838C204.371 232.195 208.032 228.521 208.032 224.046V75.1493L155.609 22.9787ZM155.608 15H55.0839C46.1735 15 39 22.1734 39 31.0838V224.09C39 233 46.1734 240.174 55.0838 240.174H199.838C208.749 240.174 216.011 232.956 216.011 224.045L216.009 75.1493L155.608 15Z" fill="url(#paint0_linear)"/>
<path d="M74.0036 73C70.6795 73 68 75.7269 68 79.1094V163.215C68 166.597 70.6795 169.172 74.0036 169.172H100.308V176.802C100.308 180.185 103.06 183.598 106.311 182.911H127.999H149.689C153.012 182.911 155.692 180.185 155.692 176.802V169.172H181.996C185.319 169.172 188 166.597 188 163.215V79.1094C188 75.7269 185.308 73.2816 181.996 73H127.999H74.0036ZM86.4616 86.7401H127.999H169.538C172.095 86.7401 174.153 88.7817 174.153 91.3194V150.853C174.153 153.389 172.095 155.432 169.538 155.432H127.999H86.4616C83.904 155.432 81.8459 153.389 81.8459 150.853V91.3194C81.8459 88.7817 83.9195 87.0206 86.4616 86.7401V86.7401Z" fill="url(#paint1_linear)"/>
<path opacity="0.25" d="M155.608 17V61.2306C155.608 70.141 162.867 77.1605 171.777 77.1605L216.009 77.1493V75.1493L155.608 17Z" fill="#282828"/>
<path d="M155.608 15V59.2306C155.608 68.141 162.867 75.1605 171.777 75.1605L216.009 75.1493L155.608 15Z" fill="url(#paint2_linear)"/>
<defs>
<filter id="filter0_f" x="23.8778" y="0.441412" width="207.255" height="255.418" filterUnits="userSpaceOnUse" color-interpolation-filters="sRGB">
<feFlood flood-opacity="0" result="BackgroundImageFix"/>
<feBlend mode="normal" in="SourceGraphic" in2="BackgroundImageFix" result="shape"/>
<feGaussianBlur stdDeviation="7.5611" result="effect1_foregroundBlur"/>
</filter>
<linearGradient id="paint0_linear" x1="72.1366" y1="16.0339" x2="72.9729" y2="239.888" gradientUnits="userSpaceOnUse">
<stop stop-color="#83a598"/>
<stop offset="1" stop-color="#458588"/>
</linearGradient>
<linearGradient id="paint1_linear" x1="90.4641" y1="73.5051" x2="90.7585" y2="182.861" gradientUnits="userSpaceOnUse">
<stop stop-color="#83a598"/>
<stop offset="1" stop-color="#458588"/>
</linearGradient>
<linearGradient id="paint2_linear" x1="166.915" y1="15.2762" x2="167.09" y2="75.0844" gradientUnits="userSpaceOnUse">
<stop stop-color="#83a598"/>
<stop offset="1" stop-color="#458588"/>
</linearGradient>
</defs>
</svg>

<svg width="256" height="256" fill="none" version="1.1" viewBox="0 0 256 256" xmlns="http://www.w3.org/2000/svg">
  <path d="m55.08 15h100.5l60.4 60.15 2e-3 148.9c0 8.911-7.262 16.13-16.17 16.13h-144.8c-8.91 0-16.08-7.174-16.08-16.08v-193c0-8.91 7.173-16.08 16.08-16.08h1e-4z" fill="#ebdbb2"/>
  <path d="m155.6 22.98h-100.5c-4.504 0-8.105 3.601-8.105 8.105v193c0 4.504 3.601 8.105 8.105 8.105h144.8c4.533 0 8.194-3.674 8.194-8.149v-148.9l-52.42-52.17zm-1e-3 -7.979h-100.5c-8.91 0-16.08 7.173-16.08 16.08v193c0 8.91 7.173 16.08 16.08 16.08h144.8c8.911 0 16.17-7.218 16.17-16.13l-2e-3 -148.9-60.4-60.15z" clip-rule="evenodd" fill="url(#paint0_linear)" fill-rule="evenodd"/>
  <path d="m74 73c-3.324 0-6.004 2.727-6.004 6.109v84.11c0 3.382 2.68 5.957 6.004 5.957h26.3v7.63c0 3.383 2.752 6.796 6.003 6.109h43.38c3.323 0 6.003-2.726 6.003-6.109v-7.63h26.3c3.323 0 6.004-2.575 6.004-5.957v-84.11c0-3.382-2.692-5.828-6.004-6.109h-108zm12.46 13.74h83.08c2.557 0 4.615 2.042 4.615 4.579v59.53c0 2.536-2.058 4.579-4.615 4.579h-83.08c-2.558 0-4.616-2.043-4.616-4.579v-59.53c0-2.538 2.074-4.299 4.616-4.579z" fill="url(#paint1_linear)"/>
  <path d="m155.6 17v44.23c0 8.91 7.259 15.93 16.17 15.93l44.23-0.0112v-2l-60.4-58.15z" fill="#282828" opacity=".25"/>
  <path d="m155.6 15v44.23c0 8.91 7.259 15.93 16.17 15.93l44.23-0.0112-60.4-60.15z" fill="url(#paint2_linear)"/>
  <defs>
    <linearGradient id="paint0_linear" x1="72.14" x2="72.97" y1="16.03" y2="239.9" gradientUnits="userSpaceOnUse">
      <stop stop-color="#83a598" offset="0"/>
      <stop stop-color="#458588" offset="1"/>
    </linearGradient>
    <linearGradient id="paint1_linear" x1="90.46" x2="90.76" y1="73.51" y2="182.9" gradientUnits="userSpaceOnUse">
      <stop stop-color="#83a598" offset="0"/>
      <stop stop-color="#458588" offset="1"/>
    </linearGradient>
    <linearGradient id="paint2_linear" x1="166.9" x2="167.1" y1="15.28" y2="75.08" gradientUnits="userSpaceOnUse">
      <stop stop-color="#83a598" offset="0"/>
      <stop stop-color="#458588" offset="1"/>
    </linearGradient>
  </defs>
</svg>
